src/clp/components/img/arrow.svg

<svg height="50" viewBox="0 0 50 50" width="50" xmlns="http://www.w3.org/2000/svg"><path d="m49 24.7275184c0-.5048767-.3053479-1.1752457-.6151685-1.5005573l-17.4543571-18.54598393c-.8149155-.8425158-2.1351442-.94015294-3.0852245-.08509159-.849334.76440608-.8704978 2.2552543-.0850916 3.08533363l14.0112024 14.86402729h-38.58952516c-1.20502777 0-2.18183554.9768078-2.18183554 2.1818356 0 1.2050277.97680777 2.1819446 2.18183554 2.1819446h38.58952516l-14.0112024 14.8639728c-.7852971.8299702-.7295512 2.2841636.0850916 3.0852245.8601887.8456795 2.2827454.7704062 3.0852245-.0850916l17.4543571-18.5458202c.5128404-.5030222.6065502-.9874988.6151685-1.4997938z" transform="matrix(-1 0 0 1 50 0)"/></svg>

<?xml version="1.0" encoding="UTF-8"?>
<svg width="50px" height="50px" viewBox="0 0 50 50" version="1.1" xmlns="http://www.w3.org/2000/svg" xmlns:xlink="http://www.w3.org/1999/xlink">
    <!-- Generator: Sketch 48.2 (47327) - http://www.bohemiancoding.com/sketch -->
    <title>Artboard 5</title>
    <desc>Created with Sketch.</desc>
    <defs></defs>
    <g id="Symbols" stroke="none" stroke-width="1" fill="none" fill-rule="evenodd">
        <g id="Artboard-5" fill="#000000" fill-rule="nonzero">
            <path d="M49,24.7275184 C49,24.2226417 48.6946521,23.5522727 48.3848315,23.2269611 L30.9304744,4.68097717 C30.1155589,3.83846137 28.7953302,3.74082423 27.8452499,4.59588558 C26.9959159,5.36029166 26.9747521,6.85113988 27.7601583,7.68121921 L41.7713607,22.5452465 L3.18183554,22.5452465 C1.97680777,22.5452465 1,23.5220543 1,24.7270821 C1,25.9321098 1.97680777,26.9090267 3.18183554,26.9090267 L41.7713607,26.9090267 L27.7601583,41.7729995 C26.9748612,42.6029697 27.0306071,44.0571631 27.8452499,44.858224 C28.7054386,45.7039035 30.1279953,45.6286302 30.9304744,44.7731324 L48.3848315,26.2273122 C48.8976719,25.72429 48.9913817,25.2398134 49,24.7275184 Z" id="Shape" transform="translate(25.000000, 24.727518) scale(-1, 1) translate(-25.000000, -24.727518) "></path>
        </g>
    </g>
</svg>
